markup/images/icon24.svg

<svg xmlns="http://www.w3.org/2000/svg" width="45" height="45"><path fill-rule="evenodd" fill="#0D1B27" d="M22.5 2.811c10.854 0 19.687 8.833 19.687 19.688 0 10.854-8.833 19.688-19.687 19.688-10.855 0-19.688-8.834-19.688-19.688 0-10.855 8.833-19.688 19.688-19.688m0-2.812C10.074-.001 0 10.073 0 22.499c0 12.425 10.074 22.499 22.5 22.499 12.425 0 22.5-10.074 22.5-22.499 0-12.426-10.075-22.5-22.5-22.5zm12.543 30.023l-.126-.384c-.296-.885-1.274-1.808-2.175-2.055l-3.326-.909c-.901-.245-2.186.085-2.848.746l-1.203 1.204a12.78 12.78 0 0 1-8.985-8.987l1.204-1.203c.659-.659.988-1.945.744-2.848l-.907-3.327c-.244-.901-1.172-1.878-2.057-2.175l-.379-.126c-.887-.297-2.153.003-2.812.664l-1.802 1.802c-.321.319-.527 1.234-.527 1.237a21.284 21.284 0 0 0 6.223 15.27 21.262 21.262 0 0 0 15.219 6.221c.03 0 .972-.2 1.294-.521l1.802-1.803c.659-.656.955-1.922.661-2.806z"/></svg>

<svg 
 xmlns="http://www.w3.org/2000/svg"
 xmlns:xlink="http://www.w3.org/1999/xlink"
 width="45px" height="45px">
<path fill-rule="evenodd"  fill="rgb(13, 27, 39)"
 d="M22.500,2.811 C33.354,2.811 42.187,11.644 42.187,22.499 C42.187,33.353 33.354,42.187 22.500,42.187 C11.645,42.187 2.812,33.353 2.812,22.499 C2.812,11.644 11.645,2.811 22.500,2.811 M22.500,-0.001 C10.074,-0.001 -0.000,10.073 -0.000,22.499 C-0.000,34.924 10.074,44.998 22.500,44.998 C34.925,44.998 45.000,34.924 45.000,22.499 C45.000,10.073 34.925,-0.001 22.500,-0.001 L22.500,-0.001 ZM35.043,30.022 L34.917,29.638 C34.621,28.753 33.643,27.830 32.742,27.583 L29.416,26.674 C28.515,26.429 27.230,26.759 26.568,27.420 L25.365,28.624 C20.992,27.440 17.562,24.009 16.380,19.637 L17.584,18.434 C18.243,17.775 18.572,16.489 18.328,15.586 L17.421,12.259 C17.177,11.358 16.249,10.381 15.364,10.084 L14.985,9.958 C14.098,9.661 12.832,9.961 12.173,10.622 L10.371,12.424 C10.050,12.743 9.844,13.658 9.844,13.661 C9.783,19.378 12.024,24.885 16.067,28.931 C20.099,32.963 25.587,35.202 31.286,35.152 C31.316,35.152 32.258,34.952 32.580,34.631 L34.382,32.828 C35.041,32.172 35.337,30.906 35.043,30.022 Z"/>
</svg>
